packages/token-projects/images/lp_gmt.svg

<svg width="862" height="863" xmlns="http://www.w3.org/2000/svg" xmlns:xlink="http://www.w3.org/1999/xlink" xml:space="preserve" overflow="hidden"><defs><clipPath id="clip0"><rect x="1174" y="1397" width="862" height="863"/></clipPath><clipPath id="clip1"><rect x="1410" y="1980" width="162" height="162"/></clipPath><clipPath id="clip2"><rect x="1410" y="1980" width="162" height="162"/></clipPath><clipPath id="clip3"><rect x="1410" y="1980" width="162" height="162"/></clipPath><clipPath id="clip4"><rect x="1644" y="1980" width="163" height="162"/></clipPath><clipPath id="clip5"><rect x="1644" y="1980" width="163" height="162"/></clipPath><clipPath id="clip6"><rect x="1644" y="1980" width="163" height="162"/></clipPath><clipPath id="clip7"><rect x="1490" y="2096" width="87" height="69"/></clipPath><clipPath id="clip8"><rect x="1490" y="2096" width="87" height="69"/></clipPath><clipPath id="clip9"><rect x="1490" y="2096" width="87" height="69"/></clipPath><linearGradient x1="78.0376" y1="-8.09939" x2="30.5364" y2="82.8847" gradientUnits="userSpaceOnUse" spreadMethod="pad" id="fill10"><stop offset="0" stop-color="#00FFA3"/><stop offset="1" stop-color="#DC1FFF"/></linearGradient><linearGradient x1="57.2675" y1="-18.9431" x2="9.76619" y2="72.0409" gradientUnits="userSpaceOnUse" spreadMethod="pad" id="fill11"><stop offset="0" stop-color="#00FFA3"/><stop offset="1" stop-color="#DC1FFF"/></linearGradient><linearGradient x1="67.5864" y1="-13.5559" x2="20.0851" y2="77.4283" gradientUnits="userSpaceOnUse" spreadMethod="pad" id="fill12"><stop offset="0" stop-color="#00FFA3"/><stop offset="1" stop-color="#DC1FFF"/></linearGradient><clipPath id="clip13"><rect x="1727" y="2082" width="86" height="87"/></clipPath><clipPath id="clip14"><rect x="1727" y="2082" width="86" height="87"/></clipPath><clipPath id="clip15"><rect x="1727" y="2082" width="86" height="87"/></clipPath></defs><g clip-path="url(#clip0)" transform="translate(-1174 -1397)"><path d="M1605 2260C1489.88 2260 1381.65 2215.12 1300.24 2133.62 1218.82 2052.11 1174 1943.76 1174 1828.5 1174 1713.24 1218.82 1604.89 1300.24 1523.38 1381.65 1441.88 1489.88 1397 1605 1397 1720.12 1397 1828.35 1441.88 1909.76 1523.38 1991.18 1604.89 2036 1713.24 2036 1828.5 2036 1943.76 1991.18 2052.11 1909.76 2133.62 1828.35 2215.12 1720.12 2260 1605 2260ZM1605 1429.39C1498.51 1429.39 1398.41 1470.91 1323.11 1546.3 1247.81 1621.68 1206.34 1721.9 1206.34 1828.5 1206.34 1935.1 1247.81 2035.33 1323.09 2110.72 1398.38 2186.1 1498.5 2227.62 1604.98 2227.62 1711.47 2227.62 1811.58 2186.1 1886.87 2110.72 1962.17 2035.33 2003.64 1935.11 2003.64 1828.5 2003.64 1721.89 1962.17 1621.67 1886.87 1546.28 1811.58 1470.9 1711.47 1429.39 1605 1429.39Z" fill="#FFFFFF" fill-rule="evenodd"/><path d="M1886.29 1546.87C1811.02 1471.51 1710.96 1430 1604.51 1430 1498.06 1430 1397.98 1471.51 1322.71 1546.87 1247.44 1622.23 1206 1722.44 1206 1829 1206 1935.56 1247.46 2035.77 1322.71 2111.13 1397.96 2186.49 1498.04 2228 1604.49 2228 1710.94 2228 1811.01 2186.49 1886.28 2111.13 1961.54 2035.77 2003 1935.58 2003 1829 2003 1722.42 1961.56 1622.23 1886.29 1546.87Z" fill-rule="evenodd"/><g clip-path="url(#clip1)"><g clip-path="url(#clip2)"><g clip-path="url(#clip3)"><path d="M1567.5 2061C1567.5 2103.16 1533.32 2137.33 1491.17 2137.33 1449.02 2137.33 1414.84 2103.16 1414.84 2061 1414.84 2018.85 1449.02 1984.67 1491.17 1984.67 1533.32 1984.67 1567.5 2018.85 1567.5 2061Z" stroke="#E6BC7B" stroke-width="6.561" stroke-linecap="round" stroke-linejoin="round" fill="#E6BC7B"/><path d="M1500.69 2019.37 1500.69 2038.63 1481.64 2038.63 1481.64 2019.37M1481.65 2102.63 1481.65 2083.37 1500.69 2083.37 1500.69 2102.63" stroke="#000000" stroke-width="6.561" stroke-linecap="round" stroke-linejoin="round" fill="none" fill-rule="evenodd"/><path d="M1481.65 2060.43 1522.18 2060.43 1522.18 2083.38 1460.16 2083.38 1460.16 2038.63 1522.18 2038.63" stroke="#000000" stroke-width="6.561" stroke-linecap="round" stroke-linejoin="round" fill="none" fill-rule="evenodd"/><path d="M1552.91 2061C1552.91 2095.1 1525.27 2122.74 1491.17 2122.74 1457.07 2122.74 1429.43 2095.1 1429.43 2061 1429.43 2026.9 1457.07 1999.26 1491.17 1999.26 1525.27 1999.26 1552.91 2026.9 1552.91 2061Z" stroke="#000000" stroke-width="6.561" stroke-linecap="round" stroke-linejoin="round" fill="none" fill-rule="evenodd"/></g></g></g><g clip-path="url(#clip4)"><g clip-path="url(#clip5)"><g clip-path="url(#clip6)"><path d="M1801.5 2061C1801.5 2103.16 1767.32 2137.33 1725.17 2137.33 1683.02 2137.33 1648.84 2103.16 1648.84 2061 1648.84 2018.85 1683.02 1984.67 1725.17 1984.67 1767.32 1984.67 1801.5 2018.85 1801.5 2061Z" stroke="#E6BC7B" stroke-width="6.561" stroke-linecap="round" stroke-linejoin="round" fill="#E6BC7B"/><path d="M1734.69 2019.37 1734.69 2038.63 1715.64 2038.63 1715.64 2019.37M1715.65 2102.63 1715.65 2083.37 1734.69 2083.37 1734.69 2102.63" stroke="#000000" stroke-width="6.561" stroke-linecap="round" stroke-linejoin="round" fill="none" fill-rule="evenodd"/><path d="M1715.65 2060.43 1756.18 2060.43 1756.18 2083.38 1694.16 2083.38 1694.16 2038.63 1756.18 2038.63" stroke="#000000" stroke-width="6.561" stroke-linecap="round" stroke-linejoin="round" fill="none" fill-rule="evenodd"/><path d="M1786.91 2061C1786.91 2095.1 1759.27 2122.74 1725.17 2122.74 1691.07 2122.74 1663.43 2095.1 1663.43 2061 1663.43 2026.9 1691.07 1999.26 1725.17 1999.26 1759.27 1999.26 1786.91 2026.9 1786.91 2061Z" stroke="#000000" stroke-width="6.561" stroke-linecap="round" stroke-linejoin="round" fill="none" fill-rule="evenodd"/></g></g></g><path d="M1693.79 1895.01C1680.8 1895.01 1667.82 1892.35 1655.69 1887.01 1631.06 1876.18 1612.13 1855.27 1603.76 1829.66L1600.56 1819.87 1597.36 1829.66C1588.99 1855.27 1570.06 1876.18 1545.43 1887.03 1520.8 1897.86 1492.63 1897.69 1468.14 1886.54L1433.67 1870.84C1415.63 1862.63 1404.04 1844.62 1404.04 1824.77L1404.04 1697.77C1404.04 1688.29 1410.85 1680.19 1420.16 1678.59 1474.56 1669.18 1536.94 1664.2 1600.56 1664.2 1621.36 1664.2 1642.02 1664.73 1662.3 1665.77 1683.82 1666.87 1700.1 1685.74 1698.24 1707.26 1666.7 1704.53 1633.84 1703.14 1600.56 1703.14 1545.34 1703.14 1491.23 1707 1442.9 1714.34L1442.9 1824.78C1442.9 1829.36 1445.57 1833.52 1449.74 1835.42L1482.7 1850.45C1497.48 1857.17 1514.57 1858.02 1529.48 1851.56 1544.37 1845.09 1555.36 1833.03 1560.41 1817.6L1566.93 1797.62C1571.67 1783.07 1584.93 1772.51 1600.21 1772.38 1615.75 1772.24 1628.95 1781.75 1633.77 1796.51L1640.15 1816.03C1645.22 1831.49 1656.13 1844.65 1670.95 1851.29 1685.77 1857.93 1702.11 1857.88 1716.86 1851.15L1751.33 1835.46C1755.5 1833.55 1758.17 1829.4 1758.17 1824.82L1758.17 1551.03 1797.04 1551.03 1797.04 1824.73C1797.04 1844.58 1785.46 1862.6 1767.42 1870.81L1732.94 1886.5C1720.57 1892.17 1707.19 1895.01 1693.79 1895.01Z" fill="#FFFFFF" fill-rule="evenodd"/><g clip-path="url(#clip7)"><g clip-path="url(#clip8)"><g clip-path="url(#clip9)"><path d="M13.9693 51.4443C14.4883 50.9253 15.2019 50.6225 15.9588 50.6225L84.5944 50.6225C85.8486 50.6225 86.4757 52.1362 85.5891 53.0228L72.0306 66.5813C71.5116 67.1003 70.798 67.403 70.0412 67.403L1.40558 67.403C0.15137 67.403-0.475735 65.8893 0.410862 65.0027L13.9693 51.4443Z" fill="url(#fill10)" transform="matrix(1 0 0 1.00865 1490 2097.01)"/><path d="M13.9693 0.821724C14.5099 0.302741 15.2235 0 15.9588 0L84.5944 0C85.8486 0 86.4757 1.5137 85.5891 2.4003L72.0306 15.9588C71.5116 16.4777 70.798 16.7805 70.0412 16.7805L1.40558 16.7805C0.15137 16.7805-0.475735 15.2668 0.410862 14.3802L13.9693 0.821724Z" fill="url(#fill11)" transform="matrix(1 0 0 1.00865 1490 2097.01)"/><path d="M72.0306 25.9708C71.5116 25.4518 70.798 25.1491 70.0412 25.1491L1.40558 25.1491C0.15137 25.1491-0.475735 26.6628 0.410862 27.5494L13.9693 41.1078C14.4883 41.6268 15.2019 41.9296 15.9588 41.9296L84.5944 41.9296C85.8486 41.9296 86.4757 40.4159 85.5891 39.5293L72.0306 25.9708Z" fill="url(#fill12)" transform="matrix(1 0 0 1.00865 1490 2097.01)"/></g></g></g><g clip-path="url(#clip13)"><g clip-path="url(#clip14)"><g clip-path="url(#clip15)"><path d="M1753.3 2118.14 1770 2101.44 1786.71 2118.15 1796.43 2108.43 1770 2082 1743.58 2108.42 1753.3 2118.14M1727 2125 1736.72 2115.28 1746.44 2125 1736.72 2134.72ZM1753.3 2131.86 1770 2148.56 1786.71 2131.86 1796.43 2141.57 1796.43 2141.57 1770 2168 1743.58 2141.58 1743.57 2141.57 1753.3 2131.86M1793.56 2125 1803.28 2115.29 1813 2125 1803.28 2134.72Z" fill="#F3BA2F"/><path d="M1779.86 2124.99 1779.86 2124.99 1770 2115.13 1762.71 2122.42 1762.71 2122.42 1761.87 2123.26 1760.15 2124.98 1760.13 2125 1760.15 2125.01 1770 2134.87 1779.86 2125.01 1779.87 2125 1779.86 2124.99" fill="#F3BA2F"/></g></g></g></g></svg>

<svg width="862" height="863" xmlns="http://www.w3.org/2000/svg" xml:space="preserve" overflow="hidden"><defs><clipPath id="a"><path d="M1174 1397h862v863h-862z"/></clipPath><clipPath id="b"><path d="M1410 1980h162v162h-162z"/></clipPath><clipPath id="c"><path d="M1410 1980h162v162h-162z"/></clipPath><clipPath id="d"><path d="M1410 1980h162v162h-162z"/></clipPath><clipPath id="e"><path d="M1644 1980h163v162h-163z"/></clipPath><clipPath id="f"><path d="M1644 1980h163v162h-163z"/></clipPath><clipPath id="g"><path d="M1644 1980h163v162h-163z"/></clipPath><clipPath id="h"><path d="M1490 2096h87v69h-87z"/></clipPath><clipPath id="i"><path d="M1490 2096h87v69h-87z"/></clipPath><clipPath id="j"><path d="M1490 2096h87v69h-87z"/></clipPath><clipPath id="n"><path d="M1727 2082h86v87h-86z"/></clipPath><clipPath id="o"><path d="M1727 2082h86v87h-86z"/></clipPath><clipPath id="p"><path d="M1727 2082h86v87h-86z"/></clipPath><linearGradient x1="78.038" y1="-8.099" x2="30.536" y2="82.885" gradientUnits="userSpaceOnUse" spreadMethod="pad" id="k"><stop offset="0" stop-color="#00FFA3"/><stop offset="1" stop-color="#DC1FFF"/></linearGradient><linearGradient x1="57.267" y1="-18.943" x2="9.766" y2="72.041" gradientUnits="userSpaceOnUse" spreadMethod="pad" id="l"><stop offset="0" stop-color="#00FFA3"/><stop offset="1" stop-color="#DC1FFF"/></linearGradient><linearGradient x1="67.586" y1="-13.556" x2="20.085" y2="77.428" gradientUnits="userSpaceOnUse" spreadMethod="pad" id="m"><stop offset="0" stop-color="#00FFA3"/><stop offset="1" stop-color="#DC1FFF"/></linearGradient></defs><g clip-path="url(#a)" transform="translate(-1174 -1397)"><path d="M1605 2260c-115.12 0-223.35-44.88-304.76-126.38-81.42-81.51-126.24-189.86-126.24-305.12 0-115.26 44.82-223.61 126.24-305.12 81.41-81.5 189.64-126.38 304.76-126.38s223.35 44.88 304.76 126.38c81.42 81.51 126.24 189.86 126.24 305.12 0 115.26-44.82 223.61-126.24 305.12-81.41 81.5-189.64 126.38-304.76 126.38Zm0-830.61c-106.49 0-206.59 41.52-281.89 116.91-75.3 75.38-116.77 175.6-116.77 282.2s41.47 206.83 116.75 282.22c75.29 75.38 175.41 116.9 281.89 116.9 106.49 0 206.6-41.52 281.89-116.9 75.3-75.39 116.77-175.61 116.77-282.22 0-106.61-41.47-206.83-116.77-282.22-75.29-75.38-175.4-116.89-281.87-116.89Z" fill="#FFF" fill-rule="evenodd"/><path d="M1886.29 1546.87c-75.27-75.36-175.33-116.87-281.78-116.87-106.45 0-206.53 41.51-281.8 116.87C1247.44 1622.23 1206 1722.44 1206 1829s41.46 206.77 116.71 282.13c75.25 75.36 175.33 116.87 281.78 116.87 106.45 0 206.52-41.51 281.79-116.87C1961.54 2035.77 2003 1935.58 2003 1829c0-106.58-41.44-206.77-116.71-282.13Z" fill-rule="evenodd"/><g clip-path="url(#b)"><g clip-path="url(#c)"><g clip-path="url(#d)" stroke-width="6.561" stroke-linecap="round" stroke-linejoin="round"><path d="M1567.5 2061c0 42.16-34.18 76.33-76.33 76.33s-76.33-34.17-76.33-76.33c0-42.15 34.18-76.33 76.33-76.33s76.33 34.18 76.33 76.33Z" stroke="#E6BC7B" fill="#E6BC7B"/><path d="M1500.69 2019.37v19.26h-19.05v-19.26m.01 83.26v-19.26h19.04v19.26" stroke="#000" fill="none"/><path d="M1481.65 2060.43h40.53v22.95h-62.02v-44.75h62.02" stroke="#000" fill="none"/><path d="M1552.91 2061c0 34.1-27.64 61.74-61.74 61.74s-61.74-27.64-61.74-61.74 27.64-61.74 61.74-61.74 61.74 27.64 61.74 61.74Z" stroke="#000" fill="none"/></g></g></g><g clip-path="url(#e)"><g clip-path="url(#f)"><g clip-path="url(#g)" stroke-width="6.561" stroke-linecap="round" stroke-linejoin="round"><path d="M1801.5 2061c0 42.16-34.18 76.33-76.33 76.33s-76.33-34.17-76.33-76.33c0-42.15 34.18-76.33 76.33-76.33s76.33 34.18 76.33 76.33Z" stroke="#E6BC7B" fill="#E6BC7B"/><path d="M1734.69 2019.37v19.26h-19.05v-19.26m.01 83.26v-19.26h19.04v19.26" stroke="#000" fill="none"/><path d="M1715.65 2060.43h40.53v22.95h-62.02v-44.75h62.02" stroke="#000" fill="none"/><path d="M1786.91 2061c0 34.1-27.64 61.74-61.74 61.74s-61.74-27.64-61.74-61.74 27.64-61.74 61.74-61.74 61.74 27.64 61.74 61.74Z" stroke="#000" fill="none"/></g></g></g><path d="M1693.79 1895.01a94.52 94.52 0 0 1-38.1-8c-24.63-10.83-43.56-31.74-51.93-57.35l-3.2-9.79-3.2 9.79c-8.37 25.61-27.3 46.52-51.93 57.37-24.63 10.83-52.8 10.66-77.29-.49l-34.47-15.7c-18.04-8.21-29.63-26.22-29.63-46.07v-127c0-9.48 6.81-17.58 16.12-19.18 54.4-9.41 116.78-14.39 180.4-14.39 20.8 0 41.46.53 61.74 1.57 21.52 1.1 37.8 19.97 35.94 41.49-31.54-2.73-64.4-4.12-97.68-4.12-55.22 0-109.33 3.86-157.66 11.2v110.44c0 4.58 2.67 8.74 6.84 10.64l32.96 15.03c14.78 6.72 31.87 7.57 46.78 1.11 14.89-6.47 25.88-18.53 30.93-33.96l6.52-19.98c4.74-14.55 18-25.11 33.28-25.24 15.54-.14 28.74 9.37 33.56 24.13l6.38 19.52c5.07 15.46 15.98 28.62 30.8 35.26 14.82 6.64 31.16 6.59 45.91-.14l34.47-15.69a11.7 11.7 0 0 0 6.84-10.64v-273.79h38.87v273.7c0 19.85-11.58 37.87-29.62 46.08l-34.48 15.69c-12.37 5.67-25.75 8.51-39.15 8.51Z" fill="#FFF" fill-rule="evenodd"/><g clip-path="url(#h)"><g clip-path="url(#i)"><g clip-path="url(#j)"><path d="M13.97 51.444a2.814 2.814 0 0 1 1.989-.822h68.635c1.255 0 1.882 1.514.995 2.4l-13.558 13.56a2.814 2.814 0 0 1-1.99.821H1.406c-1.255 0-1.882-1.514-.995-2.4l13.558-13.559Z" fill="url(#k)" transform="matrix(1 0 0 1.00865 1490 2097.01)"/><path d="M13.97.822A2.892 2.892 0 0 1 15.958 0h68.635c1.255 0 1.882 1.514.995 2.4L72.031 15.96a2.814 2.814 0 0 1-1.99.822H1.406c-1.255 0-1.882-1.514-.995-2.4L13.969.82Z" fill="url(#l)" transform="matrix(1 0 0 1.00865 1490 2097.01)"/><path d="M72.03 25.97a2.814 2.814 0 0 0-1.989-.82H1.406c-1.255 0-1.882 1.513-.995 2.4l13.558 13.558a2.814 2.814 0 0 0 1.99.822h68.635c1.255 0 1.882-1.514.995-2.4L72.031 25.97Z" fill="url(#m)" transform="matrix(1 0 0 1.00865 1490 2097.01)"/></g></g></g><g clip-path="url(#n)"><g clip-path="url(#o)"><g clip-path="url(#p)" fill="#F3BA2F"><path d="m1753.3 2118.14 16.7-16.7 16.71 16.71 9.72-9.72L1770 2082l-26.42 26.42 9.72 9.72M1727 2125l9.72-9.72 9.72 9.72-9.72 9.72Zm26.3 6.86 16.7 16.7 16.71-16.7 9.72 9.71L1770 2168l-26.42-26.42-.01-.01 9.73-9.71m40.26-6.86 9.72-9.71 9.72 9.71-9.72 9.72Z"/><path d="m1779.86 2124.99-9.86-9.86-7.29 7.29-.84.84-1.72 1.72-.02.02.02.01 9.85 9.86 9.86-9.86.01-.01-.01-.01"/></g></g></g></g></svg>
